gtk-icons/Papirus-GTK/32x32/apps/kalzium.svg

<?xml version="1.0" encoding="UTF-8" standalone="no"?>
<!-- Created with Inkscape (http://www.inkscape.org/) -->

<svg
   xmlns:dc="http://purl.org/dc/elements/1.1/"
   xmlns:cc="http://creativecommons.org/ns#"
   xmlns:rdf="http://www.w3.org/1999/02/22-rdf-syntax-ns#"
   xmlns:svg="http://www.w3.org/2000/svg"
   xmlns="http://www.w3.org/2000/svg"
   xmlns:sodipodi="http://sodipodi.sourceforge.net/DTD/sodipodi-0.dtd"
   xmlns:inkscape="http://www.inkscape.org/namespaces/inkscape"
   id="svg4354"
   height="32"
   width="32"
   version="1.1"
   viewBox="0 0 32 32.000001"
   inkscape:version="0.91 r"
   sodipodi:docname="kalzium.svg">
  <defs
     id="defs11" />
  <sodipodi:namedview
     pagecolor="#ffffff"
     bordercolor="#666666"
     borderopacity="1"
     objecttolerance="10"
     gridtolerance="10"
     guidetolerance="10"
     inkscape:pageopacity="0"
     inkscape:pageshadow="2"
     inkscape:window-width="1551"
     inkscape:window-height="876"
     id="namedview9"
     showgrid="false"
     inkscape:zoom="7.375"
     inkscape:cx="16"
     inkscape:cy="16"
     inkscape:window-x="49"
     inkscape:window-y="24"
     inkscape:window-maximized="1"
     inkscape:current-layer="svg4354" />
  <metadata
     id="metadata4359">
    <rdf:RDF>
      <cc:Work
         rdf:about="">
        <dc:format>image/svg+xml</dc:format>
        <dc:type
           rdf:resource="http://purl.org/dc/dcmitype/StillImage" />
        <dc:title></dc:title>
      </cc:Work>
    </rdf:RDF>
  </metadata>
  <rect
     style="fill:#de554c"
     x="-29.000025"
     y="-29"
     width="26"
     height="26"
     transform="matrix(0,-1,-1,0,0,0)"
     rx="1.3"
     ry="1.3"
     id="rect4203-1" />
  <path
     style="opacity:0.2;fill:#ffffff"
     inkscape:connector-curvature="0"
     d="M 4.3008,3 C 3.5806,3 3,3.5806 3,4.3008 l 0,1 C 3,4.5806 3.5806,4 4.3008,4 l 23.398,0 c 0.72,0 1.301,0.5806 1.301,1.3008 l 0,-1 C 28.9998,3.5806 28.4188,3 27.6988,3 L 4.3008,3 Z"
     id="rect4164" />
  <path
     style="opacity:0.3"
     inkscape:connector-curvature="0"
     d="m 3,26.699 0,1 C 3,28.419 3.5806,29 4.3008,29 l 23.398,0 c 0.72,0 1.301,-0.581 1.301,-1.301 l 0,-1 c 0,0.72 -0.581,1.301 -1.301,1.301 l -23.398,0 c -0.7204,0 -1.301,-0.581 -1.301,-1.301 z"
     id="rect4169" />
  <path
     inkscape:connector-curvature="0"
     style="fill:#ffffff;fill-opacity:1;enable-background:new"
     d="m 7.9999999,8.0000002 c -1.6568,0 -3,1.3432 -3,2.9999998 0,1.6568 1.3432,3 3,3 0.70904,0 1.3615,-0.24498 1.8750001,-0.65625 l 2.316406,1.4375 A 4,4 0 0 0 12,16 4,4 0 0 0 12.195312,17.216797 L 9.875,18.65625 C 9.36157,18.24498 8.7090999,18 7.9999999,18 c -1.6568,0 -3,1.3432 -3,3 0,1.6568 1.3432,3 3,3 C 9.6568,24 11,22.6568 11,21 11,20.76873 10.95565,20.55999 10.90625,20.34375 l 2.337891,-1.453125 A 4,4 0 0 0 16,20 4,4 0 0 0 18.759766,18.892578 L 21.09375,20.34375 C 21.04425,20.55999 21,20.76873 21,21 c 0,1.6568 1.3432,3 3,3 1.6568,0 3,-1.3432 3,-3 0,-1.6568 -1.3432,-3 -3,-3 -0.70904,0 -1.3615,0.24498 -1.875,0.65625 L 19.808594,17.216797 A 4,4 0 0 0 20,16 4,4 0 0 0 19.806641,14.785156 L 22.125,13.34375 C 22.63836,13.75502 23.2909,14 24,14 c 1.6568,0 3,-1.3432 3,-3 0,-1.6567998 -1.3432,-2.9999998 -3,-2.9999998 -1.6568,0 -3,1.3432 -3,2.9999998 0,0.23127 0.04435,0.44001 0.09375,0.65625 l -2.337891,1.453125 A 4,4 0 0 0 16,12 4,4 0 0 0 13.240234,13.107422 L 10.90625,11.65625 C 10.95573,11.43998 11,11.23127 11,11 11,9.3432002 9.6567999,8.0000002 7.9999999,8.0000002 Z"
     id="path8431-2" />
</svg>

<?xml version="1.0" encoding="UTF-8" standalone="no"?>
<!-- Created with Inkscape (http://www.inkscape.org/) -->
<svg id="svg4354" xmlns:rdf="http://www.w3.org/1999/02/22-rdf-syntax-ns#" xmlns="http://www.w3.org/2000/svg" height="32" viewBox="0 0 32 32.000001" width="32" version="1.1" xmlns:cc="http://creativecommons.org/ns#" xmlns:dc="http://purl.org/dc/elements/1.1/">
 <metadata id="metadata4359">
  <rdf:RDF>
   <cc:Work rdf:about="">
    <dc:format>image/svg+xml</dc:format>
    <dc:type rdf:resource="http://purl.org/dc/dcmitype/StillImage"/>
    <dc:title/>
   </cc:Work>
  </rdf:RDF>
 </metadata>
 <rect id="rect4203-1" ry="1.3" rx="1.3" transform="matrix(0,-1,-1,0,0,0)" height="26" width="26" y="-29" x="-29" fill="#de554c"/>
 <path id="rect4164" opacity=".2" d="m4.3008 3c-0.7202 0-1.3008 0.5806-1.3008 1.3008v1c0-0.7202 0.5806-1.3008 1.3008-1.3008h23.398c0.72 0 1.301 0.5806 1.301 1.3008v-1c0-0.7202-0.581-1.3008-1.301-1.3008h-23.398z" fill="#fff"/>
 <path id="rect4169" opacity=".3" d="m3 26.699v1c0 0.72 0.5806 1.301 1.3008 1.301h23.398c0.72 0 1.301-0.581 1.301-1.301v-1c0 0.72-0.581 1.301-1.301 1.301h-23.398c-0.7204 0-1.301-0.581-1.301-1.301z"/>
 <path id="path8431-2" style="enable-background:new" d="m8 8c-1.6568 0-3 1.3432-3 3s1.3432 3 3 3c0.70904 0 1.3615-0.24498 1.875-0.65625l2.3164 1.4375a4 4 0 0 0 -0.191 1.218 4 4 0 0 0 0.195 1.217l-2.32 1.439c-0.5134-0.411-1.1659-0.656-1.875-0.656-1.6568 0-3 1.3432-3 3s1.3432 3 3 3 3-1.343 3-3c0-0.231-0.044-0.44-0.094-0.656l2.3379-1.4531a4 4 0 0 0 2.756 1.109 4 4 0 0 0 2.76 -1.107l2.334 1.451c-0.05 0.216-0.094 0.425-0.094 0.656 0 1.6568 1.3432 3 3 3s3-1.3432 3-3-1.3432-3-3-3c-0.70904 0-1.3615 0.24498-1.875 0.65625l-2.316-1.439a4 4 0 0 0 0.191 -1.217 4 4 0 0 0 -0.193 -1.215l2.318-1.441c0.513 0.411 1.166 0.656 1.875 0.656 1.6568 0 3-1.3432 3-3s-1.3432-3-3-3-3 1.3432-3 3c0 0.23127 0.04435 0.44001 0.09375 0.65625l-2.3379 1.4531a4 4 0 0 0 -2.756 -1.109 4 4 0 0 0 -2.76 1.107l-2.334-1.451c0.05-0.216 0.094-0.425 0.094-0.656 0-1.6568-1.3432-3-3-3z" fill="#fff"/>
</svg>
